X: 18028
T: Hull's
R: reel
M: 4/4
K: Emajor
BEEc B2 Bc|BEGB cBce|BEEc B2 GB|cBce fgec|
BEEc B2 Bc|BEGB cBce|fgfe cagf|1 eccB ceec:|2 eccB ceef]
gB (3BBB g2fe|fc (3ccc effg|fc (3ccc c2 Bc|eB (3BBB Bcef|
(fg2) (g2f) eg|fc (3ccc (f2 f)e|fgfe cagf|
[1 eccB ceef:|2 eccB ceec||

